X: 42552
T: When Joy Ran Bounding
R: reel
M: 4/4
K: Aminor
E|A2 A2 A3 B|c2 BA AG z E|c2 c2 d2 cd|ed cA B3 B|
c2 c2 d2 cd|e3 A A3 ^G|A2 Bc B3 e|A2 ^G2 A3||

